X:4862
L:1/8
M:4/4
K:C
 BEA |[M:2/2][K:D]SOSOO .!fermata!PMTuCO (3(MABc) | dcde fdAF | GFGA BGEd | efge cdec | 
 defd A2 (3(ABc) | dcde fdAF | GFGA BGEd | efge cABc | dfec d2 :: (de) | fefg afdf | gfga bgeg | 
 fgaf defd | cedB A2 de | fefg afdf | gfga bgeg | afge fdec | dfec d2 :|

